!!!!SEGMENT: pl-gd--ee-1638--003-026_marenzio-luca--madrigali-a-quatro-voci-lasso-dicea.krn
!!!cenid: 15xx:1000
!!!COM: Marenzio, Luca
!!!COM-rismID: pe30003955
!!!CDT: ~1553-1599/08/22
!!!CNT: Italian
!!!GTL: Madrigali a quatro voci
!!!OTL: Lasso dicea
!!!OMV: 026
!!!PDT: 1587
!!!AGN:
!!!SMS-siglum: PL-GD
!!!SMS-shelfmark: Ee 1638
!!!SMS-shelfwork: 003-026 G
!!!SMS-variant:
!!!SMS-altvar:
!!!NIFC-rismSourceID: 990039322
!!!NIFC-islandoraID: pl-gd:57883
!!!URL-pdf-islandora: https://repozytorium.nifc.pl/islandora/object/pl-gd%3A57883/datastream/PDF/view
!!!URL-scan: https://polish.musicsources.pl/pl/lokalizacje/galeria/klocki-introligatorskie/655 @EN{Scan on Polish Music Herritage in Open Access Website} @PL{Skany w portalu Dziedzictwo Muzyki Polskiej w otwartym dostępie}
!!!ONB-nifc: UWAGA: zbiór na stronach: Canto: s. 637-653, Alto: s. do 486-501, Tenore: s. do 334-349, Bassus: s. do 182-197. Uwaga: utwory podzielone wg tytułów w spisach treści dostępnych na końcu każdej księgi głosowej.
!!!AIN: 1 alto 1 bass 1 soprn 1 tenor
!!!key:
**kern	**text	**kern	**text	**kern	**text	**kern	**text
*part4	*part4	*part3	*part3	*part2	*part2	*part1	*part1
*staff4	*staff4	*staff3	*staff3	*staff2	*staff2	*staff1	*staff1
*I"BASSO	*	*I"TENORE	*	*I"ALTO	*	*I"CANTO	*
*I'B	*	*I'T	*	*I'A	*	*I'S	*
*ICvox	*	*ICvox	*	*ICvox	*	*ICvox	*
*Ibass	*	*Itenor	*	*Ialto	*	*Isoprn	*
*clefF3	*	*clefC3	*	*clefC2	*	*clefG2	*
*k[b-]	*	*k[b-]	*	*k[b-]	*	*k[b-]	*
*g:	*	*g:	*	*g:	*	*g:	*
*M2/1	*	*M2/1	*	*M2/1	*	*M2/1	*
*met(C|)	*	*met(C|)	*	*met(C|)	*	*met(C|)	*
=1-	=1-	=1-	=1-	=1-	=1-	=1-	=1-
!LO:TX:t=P:problem:bemol podwójnie zapisany - znak przykluczowy: BB- B-	!	!	!	!LO:TX:t=P:problem:bemol podwójnie zapisany - znak przykluczowy: B- b-	!	!	!
0d	LAſ-	1r	.	1r	.	1r	.
.	.	1.f	LAſ-	1.a	LAſ-	1.dd	LAſ-
=2-	=2-	=2-	=2-	=2-	=2-	=2-	=2-
1.A	-ſo	.	.	.	.	.	.
.	.	1e	-ſo	1a	-ſo	1cc#X	-ſo
2A\	di-	2e\	di-	2a\	di-	2cc#\	di-
=3-	=3-	=3-	=3-	=3-	=3-	=3-	=3-
!	!	!	!	!LO:N:acc=#	!	!	!
1G	-cea	1g	-cea	1bn	-cea	1dd	-cea
2r	.	2r	.	2r	.	2r	.
1c\	per-	1e\	per-	1cc\	per-	1g/	per-
=4-	=4-	=4-	=4-	=4-	=4-	=4-	=4-
1F	-che	1f	-che	1cc	-che	1a	-che
2A\	ve-	2e\	ve-	2c/	ve-	2a/	ve-
=5-	=5-	=5-	=5-	=5-	=5-	=5-	=5-
2G\	-ni-	2g\	-ni-	2d/	-ni-	2b-/	-ni-
2F/	-ſti A-	2a\	-ſti A-	2f\	-ſti A-	2ccny\	-ſti| A-
1c	-mo-	1g	-mo-	1e	-mo-	1cc	-mo-
=6-	=6-	=6-	=6-	=6-	=6-	=6-	=6-
2c\	-re	1g	-re	1e	-re	1cc	-re
2C/	A-	.	.	.	.	.	.
1.F	-mor	2c/	A-	2r	.	2r	.
.	.	2f\	-mor	2A/	A-	2cc\	A-
=7-	=7-	=7-	=7-	=7-	=7-	=7-	=7-
.	.	2r	.	1.a	-mor	1.ff	-mor
!	!	!LO:SIC:v:t=custos c	!	!	!	!	!
2D/	d`og-	2F/	A-	.	.	.	.
!	!	!LO:LB:g=original	!	!	!	!	!
1F	-ni	2.c/	-mor	.	.	.	.
!	!	!	!	!LO:SIC:v:t=custos f	!	!LO:SIC:v:t=custos dd	!
.	.	.	.	2g\	d`o-	2ee\	d`o-
.	.	4c/	d`og-	.	.	.	.
!	!	!	!	!LO:LB:g=original	!	!LO:LB:g=original	!
=8-	=8-	=8-	=8-	=8-	=8-	=8-	=8-
!LO:SIC:v:t=custos G	!	!	!	!	!	!	!
1F	mio	2A/	-ni	2f\	-gni	2dd\	-gni
.	.	2a\	mio	2e/	mio	2cc\	mio
!LO:LB:g=original	!	!	!	!	!	!	!
1G	ben`-	1g	ben`-	2d/	ben`-	2b-/	ben`-
.	.	.	.	1b-y\	-in-	1dd\	-in-
=9-	=9-	=9-	=9-	=9-	=9-	=9-	=9-
2D/	-in-	1f	-in-	.	.	.	.
1F	-ui-	.	.	1a	-ui-	1cc	-ui-
.	.	1d	-ui-	.	.	.	.
2G\	-dio-	.	.	4g\	.	2b-/	-dio-
.	.	.	.	4f\	.	.	.
=10-	=10-	=10-	=10-	=10-	=10-	=10-	=10-
0A	-ſo	2c#X/	-dio-	2e/	.	0a	-ſ-
.	.	1d	.	2d/	.	.	.
.	.	.	.	1e	-dio-	.	.
.	.	2c#X/	.	.	.	.	.
=11-	=11-	=11-	=11-	=11-	=11-	=11-	=11-
1D	.	1d	-ſo	2f\	-ſo	1a	-o
.	.	.	.	1a	Con	.	.
1d	Con	1f	Con	.	.	1r	.
.	.	.	.	2a\	le	.	.
=12-	=12-	=12-	=12-	=12-	=12-	=12-	=12-
2d\	le	2f\	le	2a\	tue	0r	.
2d\	tue	2f\	tue	2.b-\	fiam	.	.
1e-X	fiã(m)-	1g	fiã(m)-	.	.	.	.
.	.	.	.	4a\	.	.	.
.	.	.	.	1g\	.	.	.
=13-	=13-	=13-	=13-	=13-	=13-	=13-	=13-
1d	-me	1a	-me a	.	.	1r	.
.	.	.	.	2f\	me a	.	.
1r	.	2.g\	pe-	2.b-\	pe-	1dd	Con
.	.	4g\	-net-	4b-\	-net-	.	.
=14-	=14-	=14-	=14-	=14-	=14-	=14-	=14-
0r	.	2g\	-rar-	2b-\	-rar-	2dd\	le
!	!	!	!	!LO:SIC:v:t=custos g	!	!	!
.	.	2f\	-mi il	2a\	-mi il	2dd\	tue
!	!	!	!	!LO:LB:g=original	!	!	!
.	.	2.e-X\	co-	4g\	co-	0ee-X	fiã-
.	.	.	.	4a\	.	.	.
.	.	.	.	2.b-\	.	.	.
!	!	!LO:SIC:v:t=custos c	!	!	!	!	!
.	.	4d\	.	.	.	.	.
!	!	!LO:LB:g=original	!	!	!	!	!
=15-	=15-	=15-	=15-	=15-	=15-	=15-	=15-
1r	.	1cny	.	.	.	.	.
.	.	.	.	8a\	.	.	.
.	.	.	.	8g\	.	.	.
.	.	.	.	2a\	.	.	.
2r	.	2B-/	-re	1b-	-re	1dd	-me a
2B-\	a	2f\	à	.	.	.	.
=16-	=16-	=16-	=16-	=16-	=16-	=16-	=16-
2.E-X/	pe-	2.e-X\	pe-	2r	.	2.gg\	pe-
.	.	.	.	2b-\	à	.	.
4E-/	-net-	4e-\	-net-	.	.	4gg\	-net-
1E-	-rar-	2e-\	-rar-	2.b-\	pe-	2gg\	-rar-
.	.	2d\	-mi il	.	.	2ff\	-mi il
.	.	.	.	4b-\	-net-	.	.
=17-	=17-	=17-	=17-	=17-	=17-	=17-	=17-
1E-YX	-mi il	4c/	co-	2.g\	-rar-	2.ee-X\	co-
.	.	4B-/	.	.	.	.	.
.	.	1B-	.	.	.	.	.
.	.	.	.	4b-\	-mi il	4dd\	.
!	!	!	!	!	!	!LO:SIC:v:t=custos dd	!
1F	co-	.	.	1f	co-	1cc	.
.	.	2A/	-re	.	.	.	.
!	!	!	!	!	!	!LO:LB:g=original	!
=18-	=18-	=18-	=18-	=18-	=18-	=18-	=18-
1BB-	-re	2r	.	1f	-re	0.dd	-re
.	.	1f	A	.	.	.	.
1.B-	A	.	.	1r	.	.	.
.	.	2f\	tur-	.	.	.	.
=19-	=19-	=19-	=19-	=19-	=19-	=19-	=19-
.	.	1g	-bar	0r	.	.	.
!LO:SIC:v:t=custos c	!	!	!	!	!	!	!
2B-\	tur-	.	.	.	.	.	.
!LO:LB:g=original	!	!	!	!	!	!LO:TX:t=P:problem: Verovio graficznie nie wyświetla pauzy	!
1c	-bar	2a\	la	.	.	1r	.
.	.	2eny\	mia	.	.	.	.
=20-	=20-	=20-	=20-	=20-	=20-	=20-	=20-
2d\	la	1a	pa-	1.f	A	0r	.
2A\	mia	.	.	.	.	.	.
0B-	pa-	1d	-ce	.	.	.	.
.	.	.	.	2f\	tur-	.	.
=21-	=21-	=21-	=21-	=21-	=21-	=21-	=21-
.	.	2.d\	e`l	1g	-bar	1r	.
.	.	4e\	mio	.	.	.	.
1A	-ce	2f\	.	2a\	la	2r	.
!	!	!LO:SIC:v:t=custos d	!	!	!	!	!
.	.	2c/	ri-	2e/	mia	1a/	A
!	!	!LO:LB:g=original	!	!	!	!	!
=22-	=22-	=22-	=22-	=22-	=22-	=22-	=22-
0r	.	0d	-po-	0f	pa-	.	.
.	.	.	.	.	.	2a/	tur-
!	!	!	!	!	!	!LO:N:acc=#	!
.	.	.	.	.	.	1bn	-bar
=23-	=23-	=23-	=23-	=23-	=23-	=23-	=23-
2r	.	1c	-ſo	2.e/	-ce	2cc\	la
2C/	e`l	.	.	.	.	2g/	pa-
.	.	.	.	4d/	.	.	.
!	!	!	!	!LO:SIC:v:t=custos e	!	!	!
1F	mio	2r	.	1c	.	1a	-ce
.	.	2F/	e`l	.	.	.	.
!	!	!	!	!LO:LB:g=original	!	!	!
=24-	=24-	=24-	=24-	=24-	=24-	=24-	=24-
1C	ri-	1.c	mio	2r	.	2g/	e`l
.	.	.	.	2e/	e`l	1a	mio
0.D	-po-	.	.	1.f	mio	.	.
.	.	2B-/	ri-	.	.	2g/	ri-
=25-	=25-	=25-	=25-	=25-	=25-	=25-	=25-
.	.	0A	-po-	.	.	0f	-po-
.	.	.	.	2e/	ri-	.	.
.	.	.	.	1d	-po-	.	.
=26-	=26-	=26-	=26-	=26-	=26-	=26-	=26-
0AA	-ſo	0A	-ſo	0c#X	-ſo	0e	-ſo
=27-	=27-	=27-	=27-	=27-	=27-	=27-	=27-
1.A	Deh	2r	.	2r	.	2r	.
.	.	1c#X	Deh	1a	Deh	1eeny	Deh
2D/	qual	2d\	qual	2a\	qual	2ff\	qual
=28-	=28-	=28-	=28-	=28-	=28-	=28-	=28-
!	!	!LO:N:acc=#	!	!	!	!	!
1G	uan-	4Bn/	uan-	1g	uã(n)-	1dd	uan-
.	.	2cny/	.	.	.	.	.
!	!	!LO:N:acc=#	!	!	!	!	!
.	.	4Bn/	.	.	.	.	.
2C/	-to	2c/	-to	1g	-to	1ee	-to
2c\	qual	2e\	qual	.	.	.	.
=29-	=29-	=29-	=29-	=29-	=29-	=29-	=29-
4B-\	glo-	4d\	glo-	2r	.	1r	.
4A\	.	4c/	.	.	.	.	.
4B-\	.	4d\	.	2b-\	qual	.	.
4c\	.	4e\	.	.	.	.	.
1d	.	1f	.	4a\	glo-	2r	.
.	.	.	.	4g\	.	.	.
!	!	!	!	!	!	!LO:SIC:v:t=custos g	!
.	.	.	.	4a\	.	2dd\	qual
.	.	.	.	4b-\	.	.	.
!	!	!	!	!	!	!LO:LB:g=original	!
=30-	=30-	=30-	=30-	=30-	=30-	=30-	=30-
!LO:SIC:v:t=custos G	!	!	!	!	!	!	!
1c	ria	2.e\	ria	2cc\	.	4g/	glo-
.	.	.	.	.	.	4f/	.
.	.	.	.	2cny/	-ria e	4g/	.
.	.	4f\	.	.	.	4a/	.
!LO:LB:g=original	!	!LO:SIC:v:t=custos f	!	!	!	!	!
2G\	qual	1g	.	2.d/	qual	1b-y	.
2G\	ho-	.	.	.	.	.	.
.	.	.	.	4e/	.	.	.
!	!	!LO:LB:g=original	!	!	!	!	!
=31-	=31-	=31-	=31-	=31-	=31-	=31-	=31-
1d	-no-	2r	.	4f\	.	2a/	-ria
.	.	.	.	4g\	.	.	.
.	.	2f\	e	4a\	.	1ff	|qual
!	!	!	!	!LO:SIC:v:t=custos cc	!	!	!
.	.	.	.	4b-\	.	.	.
!	!	!	!	!LO:LB:g=original	!	!	!
1c	-re	2a\	qual	2cc\	.	.	.
.	.	2g\	ho-	2cc\	ho-	2ee\	ho-
=32-	=32-	=32-	=32-	=32-	=32-	=32-	=32-
1F	N`aſ-	2f\	-no-	1a	-no-	2dd\	-no-
.	.	2e\	-re	.	.	2cc\	-re
2.B-\	-pet-	1d	N`aſ-	2f\	-e	2r	.
.	.	.	.	2f\	N`aſ-	2b-/	N`aſ-
4A\	.	.	.	.	.	.	.
=33-	=33-	=33-	=33-	=33-	=33-	=33-	=33-
1G	.	1d	-pet-	1g	-pet-	1b-	-pet-
2D/	-ti ò	2d\	-ti ò	2f\	-ti ò	2a/	-ti ò
1A\	qual	1c#X\	qual	1e\	qual	1a/	qual
=34-	=34-	=34-	=34-	=34-	=34-	=34-	=34-
!	!	!	!	!	!	!LO:N:acc=#	!
2G\	trion-	2d\	triõ(n)-	2g\	tri-	2bn/	tri-
2C/	-fo	2e\	-fo	2g\	-on-	1cc	-on-
2.c\	al-	2.e\	al-	2g\	-fo	.	.
=35-	=35-	=35-	=35-	=35-	=35-	=35-	=35-
.	.	.	.	2r	.	1g	-fo
4c\	-to e	4e\	-to e	.	.	.	.
2c\	pom-	2e\	pom-	2.cc\	al-	.	.
2.c\	-po-	2.e\	-po-	.	.	2r	.
.	.	.	.	4cc\	-to e	.	.
.	.	.	.	2cc\	pom-	2.gg\	al-
8B-\	.	8d\	.	.	.	.	.
8A\	.	8cny\	.	.	.	.	.
=36-	=36-	=36-	=36-	=36-	=36-	=36-	=36-
2.G\	.	1d	.	1b-	-po-	.	.
.	.	.	.	.	.	4gg\	-to e
!	!	!	!	!	!	!LO:SIC:v:t=custos gg	!
.	.	.	.	.	.	2gg\	pom-
!LO:SIC:v:t=custos B-	!	!	!	!	!	!	!
4A\	.	.	.	.	.	.	.
!LO:LB:g=original	!	!	!	!	!	!LO:LB:g=original	!
4B-\	.	2d\	-ſo	2b-\	-ſo	2.gg\	-po-
4G\	.	.	.	.	.	.	.
2.c\	.	2r	.	2.g\	al-	.	.
.	.	.	.	.	.	8ff\	.
.	.	.	.	.	.	8ee\	.
=37-	=37-	=37-	=37-	=37-	=37-	=37-	=37-
.	.	4r	.	.	.	2.dd\	.
8B-\	.	2d\	e	4g\	-to e	.	.
8A\	.	.	.	.	.	.	.
!LO:N:acc=#	!	!	!	!	!	!	!
4Bn\	.	.	.	2g\	pom-	.	.
!	!	!LO:SIC:v:t=custos c	!	!	!	!	!
4c\	.	4c/	pom-	.	.	4ee\	.
!	!	!LO:LB:g=original	!	!	!	!	!
2.F/	.	0c	-po-	2.a\	-po-	4ff\	.
.	.	.	.	.	.	4cc\	.
.	.	.	.	.	.	2.ff\	.
8Eny/	.	.	.	8g\	.	.	.
8D/	.	.	.	8f\	.	.	.
=38-	=38-	=38-	=38-	=38-	=38-	=38-	=38-
!	!	!	!	!LO:SIC:v:t=custos f	!	!	!
1C	.	.	.	1g	.	.	.
.	.	.	.	.	.	8ee\	.
.	.	.	.	.	.	8dd\	.
.	.	.	.	.	.	2ee\	.
!	!	!	!	!LO:LB:g=original	!	!	!
1F	-ſo	1c	-ſo	2f\	-ſo	2ff\	-ſo
.	.	.	.	2a\	D`ha-	2cc\	D`ha-
=39-	=39-	=39-	=39-	=39-	=39-	=39-	=39-
2r	.	2r	.	1.b-	-uer	1.dd	-uer
2BB-/	D`ha-	2f\	D`ha-	.	.	.	.
2B-y\	-uer	2f\	-uer	.	.	.	.
2F/	vn	2f\	vn	2a\	vn	2cc\	vn
=40-	=40-	=40-	=40-	=40-	=40-	=40-	=40-
2.F/	paſ-	2.f\	paſ-	2.a\	paſ-	2.cc\	paſ-
4G\	-to-	4d\	-to-	4g\	-to-	4b-y/	-to-
1D	-rel	2d\	-rel	1f#X	-rel	1a	-rel
.	.	1d\	pre-	.	.	.	.
=41-	=41-	=41-	=41-	=41-	=41-	=41-	=41-
1G	pre-	.	.	1g	pre-	1b-	pre-
.	.	1d	-fo &	.	.	.	.
!	!	!	!	!	!	!LO:SIC:v:t=custos b-	!
2G\	-fo &	.	.	1g	-fo &	1b-	-fo &
!LO:SIC:v:t=custos E	!	!	!	!	!	!	!
2F/	a-	2d\	a-	.	.	.	.
!LO:LB:g=original	!	!	!	!	!	!LO:LB:g=original	!
=42-	=42-	=42-	=42-	=42-	=42-	=42-	=42-
2.E-X/	-uin-	4G/	-uin-	1g	a-	1b-	a-
.	.	4A/	.	.	.	.	.
.	.	2.B-y/	.	.	.	.	.
4D/	.	.	.	.	.	.	.
1C	.	.	.	1e-X	-uin-	1cc	-uin-
.	.	8A/	.	.	.	.	.
.	.	8G/	.	.	.	.	.
.	.	2A/	.	.	.	.	.
=43-	=43-	=43-	=43-	=43-	=43-	=43-	=43-
2BB-/	-to	2B-/	to	1d	-to	1f	-to
1B-	Ch`a	1d	Ch`a	.	.	.	.
.	.	.	.	1r	.	1r	.
2A\	l`in-	2c/	l`in-	.	.	.	.
=44-	=44-	=44-	=44-	=44-	=44-	=44-	=44-
2B-\	-con-	2d\	-con-	2r	.	2r	.
!	!	!LO:SIC:v:t=custos d	!	!	!	!	!
4B-\	-tro	2d\	-tro	1g	Ch`a	1b-	Ch`a
4c\	pri-	.	.	.	.	.	.
!	!	!LO:LB:g=original	!	!	!	!	!
1d	-mier	2r	.	.	.	.	.
.	.	1d\	ſi	2f#X\	l`in-	2a/	l`in-
=45-	=45-	=45-	=45-	=45-	=45-	=45-	=45-
1G	ſi	.	.	2g\	-cõ(n)-	2b-/	-con-
.	.	2e-X\	die	4g\	-tro	4b-/	-tro
.	.	.	.	4a\	pri-	4cc\	pri-
1G	die	2d\	per	2.b-\	-mier	2dd\	-mier
.	.	2.e-X\	uin	.	.	2g/	ſi
.	.	.	.	4a\	ſi	.	.
=46-	=46-	=46-	=46-	=46-	=46-	=46-	=46-
1G	per	.	.	2g\	die	2b-/	die
.	.	4d\	.	.	.	.	.
!	!	!	!	!LO:SIC:v:t=custos e	!	!	!
.	.	1d	.	2fny\	per	2b-/	per
!	!	!	!	!LO:LB:g=original	!	!	!
1A	uin-	.	.	1eny	uin-	1a	uin-
.	.	2c#X/	.	.	.	.	.
=47-	=47-	=47-	=47-	=47-	=47-	=47-	=47-
2D/	-to	2d\	to	1f	-to	0a	-to
1d	Ch`a	1f	Ch`a	.	.	.	.
.	.	.	.	1r	.	.	.
2c\	l`in-	2eny\	l`in-	.	.	.	.
=48-	=48-	=48-	=48-	=48-	=48-	=48-	=48-
2B-\	-con-	2d\	-con-	2r	.	2r	.
4B-\	-tro	4d\	-tro	1b-	Ch`a	1dd	Ch`a
4G\	pri-	4e\	pri-	.	.	.	.
!LO:SIC:v:t=custos B-	!	!	!	!	!	!	!
1F	-mier	1f	-mier	.	.	.	.
!	!	!	!	!	!	!LO:SIC:v:t=custos dd	!
.	.	.	.	2a\	l`in-	2cc\	l`in-
!LO:LB:g=original	!	!	!	!	!	!LO:LB:g=original	!
=49-	=49-	=49-	=49-	=49-	=49-	=49-	=49-
2r	.	2r	.	2b-\	-con-	2dd\	-con-
1B-	Ch`a	1d	Ch`a	4b-\	-tro	4dd\	-tro
.	.	.	.	4g\	pri-	4ee\	pri-
.	.	.	.	1f	-mier	1ff	-mier
2A\	l`in-	2cny/	l`in-	.	.	.	.
=50-	=50-	=50-	=50-	=50-	=50-	=50-	=50-
2B-\	-con-	2d\	-con-	2r	.	2r	.
!	!	!LO:SIC:v:t=custos d	!	!	!	!	!
4B-\	-tro	2d\	-tro	1g	Ch`a	1b-	Ch`a
4c\	pri-	.	.	.	.	.	.
!	!	!LO:LB:g=original	!	!	!	!	!
1d	-mier	2r	.	.	.	.	.
.	.	1d\	ſi	2f#X\	l`in-	2a/	l`in-
=51-	=51-	=51-	=51-	=51-	=51-	=51-	=51-
1G	ſi	.	.	2g\	-con-	2b-/	-con-
.	.	2e-X\	die	4g\	-tro	4b-/	-tro
.	.	.	.	4a\	pri-	4cc\	pri-
1G	die	2d\	per	2.b-\	-mier	2dd\	-mier
.	.	2.e-X\	uin-	.	.	2g/	ſi
.	.	.	.	4a\	ſi	.	.
=52-	=52-	=52-	=52-	=52-	=52-	=52-	=52-
1G	per	.	.	2g\	die	2b-/	die
.	.	4d\	.	.	.	.	.
.	.	1d	.	2fny\	per	2b-/	per
1A	uin-	.	.	1e	uin-	1a	uin-
.	.	2c#X/	.	.	.	.	.
=53-	=53-	=53-	=53-	=53-	=53-	=53-	=53-
00D	-to.	00d	-to.	00f#X	-to.	00a	-to.
==	==	==	==	==	==	==	==
*-	*-	*-	*-	*-	*-	*-	*-
!!!system-decoration: [(s1,s2,s3,s4)]
!!!ENC: Filip Voros
!!!END: 2022-06-27
!!!ENC: Natalia Wrzos
!!!END: 2022-07-14
